assets/Black nib/Flat/black_nib_flat.svg

<svg width="32" height="32" viewBox="0 0 32 32" fill="none" xmlns="http://www.w3.org/2000/svg">
<path d="M14.5813 10.3413L19.5188 12.4909L21.6524 17.4124L18.3946 23.9278C17.7671 25.1829 16.6411 26.1165 15.2916 26.5007L3.68028 29.8063C3.26034 29.9259 2.80859 29.8086 2.49985 29.4999C2.19127 29.1913 2.07393 28.7398 2.1932 28.32L5.49368 16.7039C5.87743 15.3533 6.81139 14.2263 8.06724 13.5983L14.5813 10.3413Z" fill="#D3D3D3"/>
<path d="M18.1213 2.56503C18.9024 1.78399 20.1687 1.78399 20.9497 2.56503L29.435 11.0503C30.2161 11.8314 30.2161 13.0977 29.435 13.8787L25.8995 17.4143L18.9973 12.9177L14.5858 6.10057L18.1213 2.56503Z" fill="#433B6B"/>
<path d="M14.5858 6.10059L25.8995 17.4143C24.7279 18.5859 22.8284 18.5859 21.6568 17.4143L14.5858 10.3432C13.4142 9.17165 13.4142 7.27216 14.5858 6.10059Z" fill="#FFB02E"/>
<path d="M11.171 22.2431C12.2861 22.7758 13.6621 22.5803 14.5858 21.6567C15.7573 20.4851 15.7573 18.5857 14.5858 17.4141C13.4142 16.2425 11.5147 16.2425 10.3431 17.4141C9.41947 18.3377 9.22402 19.7138 9.75676 20.829L2.43616 28.1496C2.04563 28.5401 2.04563 29.1733 2.43616 29.5638C2.82668 29.9543 3.45985 29.9543 3.85037 29.5638L11.171 22.2431Z" fill="#635994"/>
</svg>

<svg xmlns="http://www.w3.org/2000/svg" width="32" height="32" fill="none"><path fill="#D3D3D3" d="m14.581 10.341 4.938 2.15 2.133 4.921-3.257 6.516a5 5 0 0 1-3.103 2.573L3.68 29.806a1.203 1.203 0 0 1-1.487-1.486l3.3-11.616a5 5 0 0 1 2.574-3.106l6.514-3.257Z"/><path fill="#433B6B" d="M18.121 2.565a2 2 0 0 1 2.829 0l8.485 8.485a2 2 0 0 1 0 2.829L25.9 17.414l-6.903-4.496L14.586 6.1l3.535-3.536Z"/><path fill="#FFB02E" d="m14.586 6.1 11.313 11.314a3 3 0 0 1-4.242 0l-7.071-7.07a3 3 0 0 1 0-4.243Z"/><path fill="#635994" d="M11.171 22.243a3.001 3.001 0 0 0 3.415-4.829 3 3 0 0 0-4.83 3.415l-7.32 7.32a1 1 0 1 0 1.414 1.415l7.321-7.32Z"/></svg>
